data/matemasie.svg

<svg width="79.912" height="20.72" viewBox="0 0 79.912 20.72" xmlns="http://www.w3.org/2000/svg"><path transform="translate(0 17.5) scale(.014 -.014)" d="m298-14q-13 0-27.5 7.5t-34.5 24.5q-27 24-63 69.5t-70 109.5-56.5 143-22.5 169q0 100 29.5 168t80 102.5 113.5 34.5q46 0 87.5-22.5t69.5-78 33-156.5q3-50 4.5-75.5t2-38 0-25-0.5-36.5 0-73q0-32 3-51.5t27-19.5q26 0 27.5 19.5t2.5 51.5q0 20 0 37.5t0 42 1 64 5 102.5q6 101 34 157.5t69 79 87 22.5q63 0 113.5-34.5t80-102.5 29.5-168q0-90-22.5-169t-56.5-143-70-109.5-63-69.5q-19-17-34-24.5t-28-7.5q-28 0-41 26t-5 58q2 9 9.5 34t16 59.5 14.5 71.5 6 70q0 43-11 65t-26 22q-13 0-20.5-13t-11-31-4.5-34.5-1-24.5q0-111-24.5-155t-76.5-44-76.5 44-24.5 155q0 8-1 24.5t-4.5 34.5-11 31-20.5 13q-15 0-26-22t-11-65q0-33 6-70t14.5-71.5 16-59.5 9.5-34q8-32-5-58t-41-26z"/><path transform="translate(13.244 17.5) scale(.014 -.014)" d="m492-14q-40 0-63 61-7 17-19 17-10 0-15.5-5.5t-10.5-10.5q-25-30-45.5-46t-55.5-16q-49 0-94.5 28.5t-82 79.5-57.5 117-21 141q1 70 27.5 129.5t76 96 118.5 36.5q50 0 85-22 16-10 27-20.5t18-21.5q6-9 10.5-14t12.5-5 12 5.5 8 12.5q17 29 39.5 47t52.5 18q52 0 74-44.5t22-127.5q0-43-5.5-94.5t-13.5-103-17.5-96-18.5-73.5q-12-39-25-64t-39-25zm-158 131q33 0 51.5 22t11.5 72q-12 84-84 84-40 0-60-20.5t-20-47.5q0-20 10.5-46t33-45 57.5-19z"/><path transform="translate(22.12 17.5) scale(.014 -.014)" d="m273-14q-33 0-67.5 8.5t-66.5 33.5-57 74-40 130.5-15 202.5q0 122 14.5 193t51.5 101.5 104 30.5q78 0 108-57t1-153q-7-22 3.5-36t35.5-10q67 10 98.5-11t31.5-60q0-46-29-68t-80-9q-20 5-40 13.5t-38 12-33.5-5-26.5-37.5q-8-21-13-53.5t-4-68 10-66.5 28.5-50.5 52.5-19.5q20 0 38.5 7.5t40.5 21.5q18 12 36 10.5t30-13 12-30.5q0-15-11-35.5t-40-34.5q-45-21-135-21z"/><path transform="translate(29.008 17.5) scale(.014 -.014)" d="m333-14q-154 0-229 85t-75 241q0 62 13 116.5t42.5 96.5 79 65.5 122.5 23.5q95 0 159.5-33.5t97.5-91 33-128.5q0-39-18.5-78t-57.5-70.5-98.5-51-142.5-19.5q-22 0-30-6t-8-17q0-23 20-32t47-9 46 2q23 2 43.5 9t44.5 23q17 12 38.5 9t30.5-25q11-22-3.5-48.5t-40.5-38.5q-22-10-46-16.5t-68-6.5zm-53 245q20 0 35.5 13.5t25 32 9.5 34.5q0 57-62 57-26 0-40-12t-18.5-30.5-4.5-38.5q0-28 15-42t40-14z"/><path transform="translate(37.38 17.5) scale(.014 -.014)" d="m446-14q-21 0-31.5 14t-14 36.5-3.5 46.5q0 35-1.5 72.5t-9.5 69-26 51-51 19.5q-36 0-53-22.5t-23-58.5-9-77-12-77q-9-38-21.5-53.5t-23.5-18-16-2.5q-21 0-36 23t-26 54q-10 29-20 75t-18.5 98-14 102-5.5 88q0 97 35.5 142.5t91.5 45.5q34 0 63-15.5t48-45.5q5-8 9.5-13.5t11.5-5.5q8 0 14 6t19 18q28 26 53.5 41t58.5 15q41 0 75-20t51-46q5-7 9-13t12-6 14 6 19 18q29 27 55 44t61 17q49 0 91.5-28.5t68.5-88.5 26-155q0-66-13-129.5t-34.5-114.5-47-81.5-50.5-30.5q-18 0-28.5 21t-10.5 76q0 33-1.5 70t-9 69-25.5 52.5-50 20.5q-29 0-43.5-16.5t-20.5-41.5-12-51q-10-46-27.5-92t-42-77-55.5-31z"/><path transform="translate(50.596 17.5) scale(.014 -.014)" d="m492-14q-40 0-63 61-7 17-19 17-10 0-15.5-5.5t-10.5-10.5q-25-30-45.5-46t-55.5-16q-49 0-94.5 28.5t-82 79.5-57.5 117-21 141q1 70 27.5 129.5t76 96 118.5 36.5q50 0 85-22 16-10 27-20.5t18-21.5q6-9 10.5-14t12.5-5 12 5.5 8 12.5q17 29 39.5 47t52.5 18q52 0 74-44.5t22-127.5q0-43-5.5-94.5t-13.5-103-17.5-96-18.5-73.5q-12-39-25-64t-39-25zm-158 131q33 0 51.5 22t11.5 72q-12 84-84 84-40 0-60-20.5t-20-47.5q0-20 10.5-46t33-45 57.5-19z"/><path transform="translate(59.472 17.5) scale(.014 -.014)" d="m285-14q-63 0-99 6.5t-65 19.5q-29 14-40 32.5t-11 32.5q0 18 11.5 31t29.5 16 37-10q40-26 79-29t73-2q30 1 56 12t26 32q0 14-15.5 18.5t-55.5 4.5q-132 0-209.5 50t-77.5 162q0 72 33.5 129t98.5 90 161 33q108 0 168.5-44.5t60.5-128.5q0-108-103-108-24 0-54.5 4.5t-58 9-44.5 4.5q-26 0-37.5-12t-11.5-30q0-21 16.5-31.5t60.5-10.5q97 0 143-36t46-102q0-64-58.5-103.5t-159.5-39.5z"/><path transform="translate(67.312 17.5) scale(.014 -.014)" d="m151 600q-51 0-82 30t-31 80 31 78.5 82 28.5 82-28.5 31-78.5-31-80-82-30zm0-614q-30 0-45.5 18.5t-26.5 49.5q-7 21-16.5 57.5t-19 81.5-15.5 91-6 85q0 89 34.5 129.5t94.5 40.5 94.5-40.5 34.5-129.5q0-39-6-85t-15.5-91-19-81.5-16.5-57.5q-11-33-27-50.5t-45-17.5z"/><path transform="translate(71.54 17.5) scale(.014 -.014)" d="m333-14q-154 0-229 85t-75 241q0 62 13 116.5t42.5 96.5 79 65.5 122.5 23.5q95 0 159.5-33.5t97.5-91 33-128.5q0-39-18.5-78t-57.5-70.5-98.5-51-142.5-19.5q-22 0-30-6t-8-17q0-23 20-32t47-9 46 2q23 2 43.5 9t44.5 23q17 12 38.5 9t30.5-25q11-22-3.5-48.5t-40.5-38.5q-22-10-46-16.5t-68-6.5zm-53 245q20 0 35.5 13.5t25 32 9.5 34.5q0 57-62 57-26 0-40-12t-18.5-30.5-4.5-38.5q0-28 15-42t40-14z"/></svg>

<?xml version="1.0" encoding="utf-8" ?>
<svg baseProfile="tiny" height="100%" version="1.2" width="100%" xmlns="http://www.w3.org/2000/svg" xmlns:ev="http://www.w3.org/2001/xml-events" xmlns:xlink="http://www.w3.org/1999/xlink"><defs /><g><path d="M298 -14Q285 -14 270.5 -6.5Q256 1 236 18Q209 42 173.0 87.5Q137 133 103.0 197.0Q69 261 46.5 340.0Q24 419 24 509Q24 609 53.5 677.0Q83 745 133.5 779.5Q184 814 247 814Q293 814 334.5 791.5Q376 769 404.0 713.5Q432 658 437 557Q440 507 441.5 481.5Q443 456 443.5 443.5Q444 431 443.5 418.5Q443 406 443.0 382.0Q443 358 443 309Q443 277 446.0 257.5Q449 238 473 238Q499 238 500.5 257.5Q502 277 503 309Q503 329 503.0 346.5Q503 364 503.0 388.5Q503 413 504.0 452.5Q505 492 509 555Q515 656 543.0 712.5Q571 769 612.0 791.5Q653 814 699 814Q762 814 812.5 779.5Q863 745 892.5 677.0Q922 609 922 509Q922 419 899.5 340.0Q877 261 843.0 197.0Q809 133 773.0 87.5Q737 42 710 18Q691 1 676.0 -6.5Q661 -14 648 -14Q620 -14 607.0 12.0Q594 38 602 70Q604 79 611.5 104.0Q619 129 627.5 163.5Q636 198 642.0 235.0Q648 272 648 305Q648 348 637.0 370.0Q626 392 611 392Q598 392 590.5 379.0Q583 366 579.5 348.0Q576 330 575.0 313.5Q574 297 574 289Q574 178 549.5 134.0Q525 90 473 90Q421 90 396.5 134.0Q372 178 372 289Q372 297 371.0 313.5Q370 330 366.5 348.0Q363 366 355.5 379.0Q348 392 335 392Q320 392 309.0 370.0Q298 348 298 305Q298 272 304.0 235.0Q310 198 318.5 163.5Q327 129 334.5 104.0Q342 79 344 70Q352 38 339.0 12.0Q326 -14 298 -14Z" transform="translate(0.0, 72) scale(0.072, -0.072)" /><path d="M492 -14Q452 -14 429 47Q422 64 410 64Q400 64 394.5 58.5Q389 53 384 48Q359 18 338.5 2.0Q318 -14 283 -14Q234 -14 188.5 14.5Q143 43 106.5 94.0Q70 145 49.0 211.0Q28 277 28 352Q29 422 55.5 481.5Q82 541 131.5 577.5Q181 614 250 614Q300 614 335 592Q351 582 362.0 571.5Q373 561 380 550Q386 541 390.5 536.0Q395 531 403 531Q411 531 415.0 536.5Q419 542 423 549Q440 578 462.5 596.0Q485 614 515 614Q567 614 589.0 569.5Q611 525 611 442Q611 399 605.5 347.5Q600 296 592.0 244.5Q584 193 574.5 148.5Q565 104 556 75Q544 36 531.0 11.0Q518 -14 492 -14ZM334 117Q367 117 385.5 139.0Q404 161 397 211Q385 295 313 295Q273 295 253.0 274.5Q233 254 233 227Q233 207 243.5 181.0Q254 155 276.5 136.0Q299 117 334 117Z" transform="translate(68.112, 72) scale(0.072, -0.072)" /><path d="M273 -14Q240 -14 205.5 -5.5Q171 3 139.0 28.0Q107 53 82.0 102.0Q57 151 42.0 232.5Q27 314 27 435Q27 557 41.5 628.0Q56 699 93.0 729.5Q130 760 197 760Q275 760 305.0 703.0Q335 646 306 550Q299 528 309.5 514.0Q320 500 345 504Q412 514 443.5 493.0Q475 472 475 433Q475 387 446.0 365.0Q417 343 366 356Q346 361 326.0 369.5Q306 378 288.0 381.5Q270 385 254.5 376.5Q239 368 228 339Q220 318 215.0 285.5Q210 253 211.0 217.5Q212 182 221.0 151.0Q230 120 249.5 100.5Q269 81 302 81Q322 81 340.5 88.5Q359 96 381 110Q399 122 417.0 120.5Q435 119 447.0 107.5Q459 96 459 77Q459 62 448.0 41.5Q437 21 408 7Q363 -14 273 -14Z" transform="translate(113.75999999999999, 72) scale(0.072, -0.072)" /><path d="M333 -14Q179 -14 104.0 71.0Q29 156 29 312Q29 374 42.0 428.5Q55 483 84.5 525.0Q114 567 163.5 590.5Q213 614 286 614Q381 614 445.5 580.5Q510 547 543.0 489.5Q576 432 576 361Q576 322 557.5 283.0Q539 244 500.0 212.5Q461 181 401.5 161.5Q342 142 259 142Q237 142 229.0 136.0Q221 130 221 119Q221 96 241.0 87.0Q261 78 288.0 78.0Q315 78 334 80Q357 82 377.5 89.0Q398 96 422 112Q439 124 460.5 121.0Q482 118 491 96Q502 74 487.5 47.5Q473 21 447 9Q425 -1 401.0 -7.5Q377 -14 333 -14ZM280 231Q300 231 315.5 244.5Q331 258 340.5 276.5Q350 295 350 311Q350 368 288 368Q262 368 248.0 356.0Q234 344 229.5 325.5Q225 307 225 287Q225 259 240.0 245.0Q255 231 280 231Z" transform="translate(149.184, 72) scale(0.072, -0.072)" /><path d="M446 -14Q425 -14 414.5 0.0Q404 14 400.5 36.5Q397 59 397 83Q397 118 395.5 155.5Q394 193 386.0 224.5Q378 256 360.0 275.5Q342 295 309 295Q273 295 256.0 272.5Q239 250 233.0 214.0Q227 178 224.0 137.0Q221 96 212 60Q203 22 190.5 6.5Q178 -9 167.0 -11.5Q156 -14 151 -14Q130 -14 115.0 9.0Q100 32 89 63Q79 92 69.0 138.0Q59 184 50.5 236.0Q42 288 36.5 338.0Q31 388 31 426Q31 523 66.5 568.5Q102 614 158 614Q192 614 221.0 598.5Q250 583 269 553Q274 545 278.5 539.5Q283 534 290 534Q298 534 304.0 540.0Q310 546 323 558Q351 584 376.5 599.0Q402 614 435 614Q476 614 510.0 594.0Q544 574 561 548Q566 541 570.0 535.0Q574 529 582 529Q590 529 596.0 535.0Q602 541 615 553Q644 580 670.0 597.0Q696 614 731 614Q780 614 822.5 585.5Q865 557 891.0 497.0Q917 437 917 342Q917 276 904.0 212.5Q891 149 869.5 98.0Q848 47 822.5 16.5Q797 -14 772 -14Q754 -14 743.5 7.0Q733 28 733 83Q733 116 731.5 153.0Q730 190 722.5 222.0Q715 254 697.0 274.5Q679 295 647 295Q618 295 603.5 278.5Q589 262 583.0 237.0Q577 212 571 186Q561 140 543.5 94.0Q526 48 501.5 17.0Q477 -14 446 -14Z" transform="translate(192.24, 72) scale(0.072, -0.072)" /><path d="M492 -14Q452 -14 429 47Q422 64 410 64Q400 64 394.5 58.5Q389 53 384 48Q359 18 338.5 2.0Q318 -14 283 -14Q234 -14 188.5 14.5Q143 43 106.5 94.0Q70 145 49.0 211.0Q28 277 28 352Q29 422 55.5 481.5Q82 541 131.5 577.5Q181 614 250 614Q300 614 335 592Q351 582 362.0 571.5Q373 561 380 550Q386 541 390.5 536.0Q395 531 403 531Q411 531 415.0 536.5Q419 542 423 549Q440 578 462.5 596.0Q485 614 515 614Q567 614 589.0 569.5Q611 525 611 442Q611 399 605.5 347.5Q600 296 592.0 244.5Q584 193 574.5 148.5Q565 104 556 75Q544 36 531.0 11.0Q518 -14 492 -14ZM334 117Q367 117 385.5 139.0Q404 161 397 211Q385 295 313 295Q273 295 253.0 274.5Q233 254 233 227Q233 207 243.5 181.0Q254 155 276.5 136.0Q299 117 334 117Z" transform="translate(260.20799999999997, 72) scale(0.072, -0.072)" /><path d="M285 -14Q222 -14 186.0 -7.5Q150 -1 121 12Q92 26 81.0 44.5Q70 63 70 77Q70 95 81.5 108.0Q93 121 111.0 124.0Q129 127 148 114Q188 88 227.0 85.0Q266 82 300 83Q330 84 356.0 95.0Q382 106 382 127Q382 141 366.5 145.5Q351 150 311 150Q179 150 101.5 200.0Q24 250 24 362Q24 434 57.5 491.0Q91 548 156.0 581.0Q221 614 317 614Q425 614 485.5 569.5Q546 525 546 441Q546 333 443 333Q419 333 388.5 337.5Q358 342 330.5 346.5Q303 351 286 351Q260 351 248.5 339.0Q237 327 237 309Q237 288 253.5 277.5Q270 267 314 267Q411 267 457.0 231.0Q503 195 503 129Q503 65 444.5 25.5Q386 -14 285 -14Z" transform="translate(305.856, 72) scale(0.072, -0.072)" /><path d="M151 600Q100 600 69.0 630.0Q38 660 38 710Q38 760 69.0 788.5Q100 817 151 817Q202 817 233.0 788.5Q264 760 264 710Q264 660 233.0 630.0Q202 600 151 600ZM151 -14Q121 -14 105.5 4.5Q90 23 79 54Q72 75 62.5 111.5Q53 148 43.5 193.0Q34 238 28.0 284.0Q22 330 22 369Q22 458 56.5 498.5Q91 539 151 539Q211 539 245.5 498.5Q280 458 280 369Q280 330 274.0 284.0Q268 238 258.5 193.0Q249 148 239.5 111.5Q230 75 223 54Q212 21 196.0 3.5Q180 -14 151 -14Z" transform="translate(346.176, 72) scale(0.072, -0.072)" /><path d="M333 -14Q179 -14 104.0 71.0Q29 156 29 312Q29 374 42.0 428.5Q55 483 84.5 525.0Q114 567 163.5 590.5Q213 614 286 614Q381 614 445.5 580.5Q510 547 543.0 489.5Q576 432 576 361Q576 322 557.5 283.0Q539 244 500.0 212.5Q461 181 401.5 161.5Q342 142 259 142Q237 142 229.0 136.0Q221 130 221 119Q221 96 241.0 87.0Q261 78 288.0 78.0Q315 78 334 80Q357 82 377.5 89.0Q398 96 422 112Q439 124 460.5 121.0Q482 118 491 96Q502 74 487.5 47.5Q473 21 447 9Q425 -1 401.0 -7.5Q377 -14 333 -14ZM280 231Q300 231 315.5 244.5Q331 258 340.5 276.5Q350 295 350 311Q350 368 288 368Q262 368 248.0 356.0Q234 344 229.5 325.5Q225 307 225 287Q225 259 240.0 245.0Q255 231 280 231Z" transform="translate(367.91999999999996, 72) scale(0.072, -0.072)" /></g></svg>
